src/main/resources/icons/DvcsImplIcons/icons/cherryPick.svg

<svg xmlns="http://www.w3.org/2000/svg" width="16" height="16" viewBox="0 0 16 16">
  <g fill="#6E6E6E" fill-rule="evenodd" transform="translate(2 1)">
    <circle cx="8.5" cy="10.5" r="3.5"/>
    <path d="M6.3896146,6.52453512 C4.96794299,7.28080531 4,8.77736506 4,10.5 C4,10.9975882 4.08076132,11.4763136 4.229891,11.9237832 C3.99446926,11.9737252 3.75030304,12 3.5,12 C1.56700338,12 0,10.4329966 0,8.5 C0,6.56700338 1.56700338,5 3.5,5 C4.70006696,5 5.75906809,5.60397464 6.3896146,6.52453512 Z"/>
    <path d="M3.12453459,6.60569924 C4.08941797,3.06318103 7.16510139,0.473039399 10.8101589,0.473039399 C11.1886965,0.473039399 11.5610935,0.500973368 11.9256235,0.555007027 C11.9584475,0.538684886 11.9914183,0.52249794 12.0245342,0.506447349 L12.0245342,1.6414425 C10.0593013,2.71905844 8.80739551,4.34675764 8.80739551,6.16801624 C8.80739551,6.59410638 8.87591772,7.00960219 9.00606549,7.40993826 L7.84334276,7.40993826 C7.75586976,7.03756883 7.71037584,6.65530103 7.71037584,6.26559527 C7.71037584,4.4850561 8.66006782,2.85978565 10.2242163,1.62444872 C7.19081178,1.89909099 4.71822556,4.28650836 4.08988039,7.40993826 L3.12453459,7.40993826 L3.12453459,6.60569924 Z"/>
  </g>
</svg>

<svg xmlns="http://www.w3.org/2000/svg" width="16" height="16" viewBox="0 0 16 16"><rect id="frame" width="16" height="16" fill="none"/><g fill="#6E6E6E" fill-rule="evenodd" transform="translate(2 1)"><circle cx="8.5" cy="10.5" r="3.5"/><path d="M6.39 6.525a4.5 4.5 0 0 0-2.16 5.399 3.5 3.5 0 1 1 2.16-5.4z"/><path d="M3.125 6.606C4.089 3.063 7.165.473 10.81.473c.379 0 .751.028 1.116.082l.099-.049v1.135C10.059 2.72 8.807 4.347 8.807 6.168c0 .426.069.842.2 1.242H7.842a4.994 4.994 0 0 1-.133-1.144c0-1.78.95-3.406 2.514-4.642C7.191 1.9 4.718 4.287 4.09 7.41h-.965v-.804z"/></g></svg>
